src/images/global/icons/alert/error.svg

<?xml version="1.0" encoding="UTF-8"?>
<svg width="48px" height="48px" viewBox="0 0 48 48" version="1.1" xmlns="http://www.w3.org/2000/svg" xmlns:xlink="http://www.w3.org/1999/xlink">
    <!-- Generator: Sketch 46.2 (44496) - http://www.bohemiancoding.com/sketch -->
    <title>icon/Alert/error</title>
    <desc>Created with Sketch.</desc>
    <defs>
        <path d="M23.2932428,6.26069397 L17.6415969,0.687145117 C17.20909,0.253049411 16.6499088,0 16.0377841,0 L7.93637577,0.0136159738 C7.36031238,0.0136159738 6.7957335,0.248203047 6.38791829,0.657605377 L0.863406021,6.10353333 C0.306751461,6.66224981 0,7.40535889 0,8.19566231 L0,15.9494978 C0,16.5922179 0.249443719,17.1962825 0.701933706,17.6503406 L6.28892175,23.2574679 C6.76552922,23.7363347 7.39993396,24 8.07545328,24 L15.9122583,24 C16.5950128,24 17.236538,23.7328731 17.7180838,23.2490444 L23.1125913,17.8365795 C23.68475,17.2620546 24,16.4989831 24,15.6862941 L24,7.97249881 C24,7.32620161 23.7487188,6.7178676 23.2932428,6.26069397 L23.2932428,6.26069397 Z M11.3608292,6.00337515 C11.3608292,5.62108937 11.6694182,5.3110375 12.0499002,5.3110375 C12.4303823,5.3110375 12.7389713,5.62108937 12.7389713,6.00337515 L12.7389713,15.2084658 C12.7389713,15.5907515 12.4303823,15.9008034 12.0499002,15.9008034 C11.6694182,15.9008034 11.3608292,15.5907515 11.3608292,15.2084658 L11.3608292,6.00337515 L11.3608292,6.00337515 Z M12.0499002,18.8105832 C11.5544581,18.8105832 11.1527297,18.4075272 11.1527297,17.910198 C11.1527297,17.4127534 11.5544581,17.0095821 12.0499002,17.0095821 C12.5454572,17.0095821 12.9471856,17.4127534 12.9471856,17.910198 C12.9471856,18.4074119 12.5454572,18.8105832 12.0499002,18.8105832 L12.0499002,18.8105832 Z" id="path-1"></path>
    </defs>
    <g id="Symbols" stroke="none" stroke-width="1" fill="none" fill-rule="evenodd">
        <g id="icon/Alert/error">
            <g id="Icon" transform="translate(12.000000, 12.000000)">
                <mask id="mask-2" fill="white">
                    <use xlink:href="#path-1"></use>
                </mask>
                <use id="Mask" fill="#384048" xlink:href="#path-1"></use>
                <g id="Color/Messaging/Error" mask="url(#mask-2)" fill="#9D2028">
                    <g transform="translate(-12.000000, -12.000000)" id="Swatch">
                        <rect x="0" y="0" width="48" height="48"></rect>
                    </g>
                </g>
            </g>
        </g>
    </g>
</svg>

<?xml version="1.0" encoding="utf-8"?>
<!-- Generator: Adobe Illustrator 21.0.2, SVG Export Plug-In . SVG Version: 6.00 Build 0)  -->
<svg version="1.1" id="icon_x2F_Alert_x2F_error-Layer_1" xmlns="http://www.w3.org/2000/svg" xmlns:xlink="http://www.w3.org/1999/xlink" x="0px" y="0px"
	 viewBox="0 0 48 48" style="enable-background:new 0 0 48 48;" xml:space="preserve">
<title>icon/Alert/error</title>
<desc>Created with Sketch.</desc>
<g id="icon_x2F_Alert_x2F_error-Symbols">
	<g id="icon_x2F_Alert_x2F_error">
		<g id="icon_x2F_Alert_x2F_error-Icon" transform="translate(12.000000, 12.000000)">
			<g id="icon_x2F_Alert_x2F_error-Mask">
				<path id="icon_x2F_Alert_x2F_error-path-1_1_" style="fill:#384048;" d="M23.3,6.3l-5.7-5.6C17.2,0.3,16.6,0,16,0L7.9,0C7.4,0,6.8,0.2,6.4,0.7L0.9,6.1
					C0.3,6.7,0,7.4,0,8.2v7.8c0,0.6,0.2,1.2,0.7,1.7l5.6,5.6C6.8,23.7,7.4,24,8.1,24h7.8c0.7,0,1.3-0.3,1.8-0.8l5.4-5.4
					c0.6-0.6,0.9-1.3,0.9-2.2V8C24,7.3,23.7,6.7,23.3,6.3L23.3,6.3z M11.4,6c0-0.4,0.3-0.7,0.7-0.7c0.4,0,0.7,0.3,0.7,0.7v9.2
					c0,0.4-0.3,0.7-0.7,0.7c-0.4,0-0.7-0.3-0.7-0.7V6L11.4,6z M12,18.8c-0.5,0-0.9-0.4-0.9-0.9c0-0.5,0.4-0.9,0.9-0.9
					c0.5,0,0.9,0.4,0.9,0.9C12.9,18.4,12.5,18.8,12,18.8L12,18.8z"/>
			</g>
			<defs>
				<filter id="icon_x2F_Alert_x2F_error-Adobe_OpacityMaskFilter" filterUnits="userSpaceOnUse" x="-12" y="-12" width="48" height="48">
					<feColorMatrix  type="matrix" values="1 0 0 0 0  0 1 0 0 0  0 0 1 0 0  0 0 0 1 0"/>
				</filter>
			</defs>
			<mask maskUnits="userSpaceOnUse" x="-12" y="-12" width="48" height="48" id="icon_x2F_Alert_x2F_error-mask-2">
				<g style="filter:url(#icon_x2F_Alert_x2F_error-Adobe_OpacityMaskFilter);">
					<path id="icon_x2F_Alert_x2F_error-path-1" style="fill:#FFFFFF;" d="M23.3,6.3l-5.7-5.6C17.2,0.3,16.6,0,16,0L7.9,0C7.4,0,6.8,0.2,6.4,0.7L0.9,6.1
						C0.3,6.7,0,7.4,0,8.2v7.8c0,0.6,0.2,1.2,0.7,1.7l5.6,5.6C6.8,23.7,7.4,24,8.1,24h7.8c0.7,0,1.3-0.3,1.8-0.8l5.4-5.4
						c0.6-0.6,0.9-1.3,0.9-2.2V8C24,7.3,23.7,6.7,23.3,6.3L23.3,6.3z M11.4,6c0-0.4,0.3-0.7,0.7-0.7c0.4,0,0.7,0.3,0.7,0.7v9.2
						c0,0.4-0.3,0.7-0.7,0.7c-0.4,0-0.7-0.3-0.7-0.7V6L11.4,6z M12,18.8c-0.5,0-0.9-0.4-0.9-0.9c0-0.5,0.4-0.9,0.9-0.9
						c0.5,0,0.9,0.4,0.9,0.9C12.9,18.4,12.5,18.8,12,18.8L12,18.8z"/>
				</g>
			</mask>
			<g id="icon_x2F_Alert_x2F_error-Color_x2F_Messaging_x2F_Error" style="mask:url(#icon_x2F_Alert_x2F_error-mask-2);">
				<g id="icon_x2F_Alert_x2F_error-Swatch" transform="translate(-12.000000, -12.000000)">
					<rect style="fill:#9D2028;" width="48" height="48"/>
				</g>
			</g>
		</g>
	</g>
</g>
</svg>
